svg/u1f9a9.svg

<svg viewBox="0 0 128 128" xmlns="http://www.w3.org/2000/svg">
  <path d="M66.57,64.7l4.5-0.38c0,0,0.75,50.49,0,52.37c-0.75,1.88-8.26,9.76-12.95,4.32 c-4.69-5.44,0-6.19,3.75-6.57c3.75-0.38,4.88,0.38,5.07-0.94C67.14,112.19,66.57,64.7,66.57,64.7z" fill="#F77EAE"/>
  <path d="M38.7,9c0,0,5.73-6.05,13.8-3.8s8.63,12.53,3.85,20.46c-4.09,6.78-12.45,18.76-12.29,25.34 c0.14,6.03,5.63,5.44,8.07,0.94c2.44-4.5,3.21-6.52,3.21-6.52l9.71,23.65c0,0-14.62,9.07-27.38-2.58 c-11.92-10.89,2.11-32.01,4.97-37.26c1.69-3.1,2.86-5.68,2.53-8.54c-0.19-1.68-2.42-3.12-3.94-3.73c-1.46-0.58-9.5-3.19-9.5-3.19 L38.7,9z" fill="#F77EAE"/>
  <path d="M66.29,70.7c0,0,19.23,10.88,18.21,11.36c-1.41,0.66-9.1,2.25-13.14,3.1 c-3.21,0.67-7.79,1.22-9.57,2.25s-4.6,5.07-5.16,6.38c-0.56,1.31-1.03,3.85,2.72,5.63c3.75,1.78,5.91-0.66,5.91-2.82 s-0.66-5.16,0-5.54c0.87-0.49,7.13-2.06,10.89-2.91s11.36-2.91,12.48-3.19c1.13-0.28,3.19-0.38,3.57-2.16s-2.44-2.44-3.85-3.28 s-5.73-3.75-7.6-4.88c-1.88-1.13-7.88-5.73-7.88-5.73l-6.19-0.56L66.29,70.7z" fill="#F2478D"/>
  <path d="M38.7,7.54c0,0,0.56-0.56,2.91-0.56c2.35,0,6.48,1.88,8.54,2.82c2.06,0.94,4.13,1.88,4.13,2.53 c0,0.66-4.97,1.6-7.41,2.16c-2.44,0.56-6.85,1.97-6.85,1.97l-6.01-5.35L38.7,7.54z" fill="#FFD4AC"/>
  <path d="M50.43,11.62c0,1.37-1.16,2.49-2.58,2.49c-1.43,0-2.67-1.16-2.67-2.53s1.11-2.53,2.53-2.53 S50.43,10.25,50.43,11.62z" fill="#1A191E"/>
  <path d="M41.28,6.95l-5.16,0.21l-7.09,7.88l-0.19,3.1c0,0,2.67-1.03,5.4-1.45c2.72-0.42,3.65-0.43,4.27-0.38 c1.03,0.09,1.69,0.19,1.69,0.19s1.8-2.68,1.88-4.5C42.22,8.85,41.28,6.95,41.28,6.95z" fill="#F2478D"/>
  <path d="M28,7.87c-1.59,1.02-3.24,4.04-4.27,5.91s-2.61,6.25-0.56,7.23c1.38,0.66,4.22-2.11,6.1-2.91 c1.83-0.78,3.12-1.03,3.12-1.03s0.19-0.75,0.49-0.94s5.63-1.17,5.63-1.17v-1.31c0,0-6.24,1.17-6.34,0.75 c-0.09-0.42,1.48-3.05,2.7-4.32c1.22-1.27,4.08-3,4.08-3s-2.6-0.23-5.47-0.42C30.87,6.48,29.69,6.79,28,7.87z" fill="#5F6369"/>
  <path d="M36.31,14.44l1.92-1.08c0,0,1.27-1.13,2.11-0.28c0.87,0.87-0.33,2.53-1.55,1.97 C37.89,14.63,36.31,14.44,36.31,14.44z" fill="#1A191E"/>
  <radialGradient id="SVGID_1_" cx="56.9594" cy="45.1994" gradientUnits="userSpaceOnUse" r="52.1422">
    <stop offset="0.1946" stop-color="#F77EAE"/>
    <stop offset="0.354" stop-color="#F678AA"/>
    <stop offset="0.564" stop-color="#F568A1"/>
    <stop offset="0.8014" stop-color="#F24C90"/>
    <stop offset="0.8422" stop-color="#F2478D"/>
  </radialGradient>
  <path d="M54.49,58.86c1.27,3.8,3.45,13.02,18.65,13.02c10.98,0,14.27-0.17,17.53,0.56 c2.18,0.49,4.58,2.04,6.62,2.6c0.63,0.17-0.21-2.53-0.63-4.01c-0.24-0.85-0.99-2.46-0.99-2.46s1.9,0.49,3.52,1.2 c1.33,0.58,3.03,1.34,4.08,1.97c0.69,0.41-0.19-2.86-1.06-5c-0.61-1.49-2.67-4.08-2.67-4.08s1.97,0.77,2.82,1.13 c0.51,0.21,1.57,0.73,2.42,0.96c0.72,0.2-3.61-7.65-5.44-9.83s-5.7-5.77-7.53-6.9c-1.83-1.13-15.98-0.84-15.98-0.84l-20.98,1.06 C54.84,48.23,52.87,54,54.49,58.86z" fill="url(#SVGID_1_)"/>
  <linearGradient id="SVGID_2_" gradientUnits="userSpaceOnUse" x1="69.2268" x2="81.1813" y1="39.4895" y2="67.6524">
    <stop offset="0.1617" stop-color="#F77EAE"/>
    <stop offset="0.3702" stop-color="#F982A4"/>
    <stop offset="0.6638" stop-color="#FC8A8F"/>
  </linearGradient>
  <path d="M66.11,37.88c8.55-1.06,16.26,3.38,20.98,6.12c4.72,2.75,10.49,8.94,10.49,8.94 s-3.26,0.5-5.75,0.45c-2.3-0.05-5.44-0.52-5.44-0.52s2.82,2.3,4.36,4.79c0.59,0.94,2.11,3.87,2.11,3.87s-5.49,0.07-10.77-2.18 c-3.22-1.37-8.09-4.43-8.09-4.43s1.69,4.43,2.11,5.49c0.42,1.06,1.13,3.38,1.13,3.38s-5.35-0.21-9.71-3.87 c-4.36-3.66-4.22-4.55-4.22-4.55s1.27,4.62,1.62,5.82s0.84,4.36,0.84,4.36s-5.8-0.56-8.87-3.8c-2.02-2.13-3.38-5.35-3.45-7.95 C53.36,51.18,54.14,39.36,66.11,37.88z" fill="url(#SVGID_2_)"/>
</svg>

<svg viewBox="0 0 128 128" xmlns="http://www.w3.org/2000/svg">
  <defs>
    <radialGradient id="SVGID_1_" cx="56.9594" cy="45.1994" gradientUnits="userSpaceOnUse" r="52.1422">
      <stop offset="0.1946" stop-color="#F77EAE"/>
      <stop offset="0.354" stop-color="#F678AA"/>
      <stop offset="0.564" stop-color="#F568A1"/>
      <stop offset="0.8014" stop-color="#F24C90"/>
      <stop offset="0.8422" stop-color="#F2478D"/>
    </radialGradient>
    <linearGradient id="SVGID_2_" gradientUnits="userSpaceOnUse" x1="69.2268" x2="81.1813" y1="39.4895" y2="67.6524">
      <stop offset="0.1617" stop-color="#F77EAE"/>
      <stop offset="0.3702" stop-color="#F982A4"/>
      <stop offset="0.6638" stop-color="#FC8A8F"/>
    </linearGradient>
  </defs>
  <path d="M66.57,64.7 L71.07,64.32 C71.07,64.32 71.82,114.81 71.07,116.69 C70.32,118.57 62.81,126.45 58.12,121.01 C53.43,115.57 58.12,114.82 61.87,114.44 C65.62,114.06 66.75,114.82 66.94,113.5 C67.14,112.19 66.57,64.7 66.57,64.7 Z" fill="#F77EAE"/>
  <path d="M38.7,9 C38.7,9 44.43,2.95 52.5,5.2 C60.57,7.45 61.13,17.73 56.35,25.66 C52.26,32.44 43.9,44.42 44.06,51 C44.2,57.03 49.69,56.44 52.13,51.94 C54.57,47.44 55.34,45.42 55.34,45.42 L65.05,69.07 C65.05,69.07 50.43,78.14 37.67,66.49 C25.75,55.6 39.78,34.48 42.64,29.23 C44.33,26.13 45.5,23.55 45.17,20.69 C44.98,19.01 42.75,17.57 41.23,16.96 C39.77,16.38 31.73,13.77 31.73,13.77 L38.7,9 Z" fill="#F77EAE"/>
  <path d="M66.29,70.7 C66.29,70.7 85.52,81.58 84.5,82.06 C83.09,82.72 75.4,84.31 71.36,85.16 C68.15,85.83 63.57,86.38 61.79,87.41 C60.01,88.44 57.19,92.48 56.63,93.79 C56.07,95.1 55.6,97.64 59.35,99.42 C63.1,101.2 65.26,98.76 65.26,96.6 C65.26,94.44 64.6,91.44 65.26,91.06 C66.13,90.57 72.39,89 76.15,88.15 C79.91,87.3 87.51,85.24 88.63,84.96 C89.76,84.68 91.82,84.58 92.2,82.8 C92.58,81.02 89.76,80.36 88.35,79.52 C86.94,78.68 82.62,75.77 80.75,74.64 C78.87,73.51 72.87,68.91 72.87,68.91 L66.68,68.35 L66.29,70.7 Z" fill="#F2478D"/>
  <path d="M38.7,7.54 C38.7,7.54 39.26,6.98 41.61,6.98 C43.96,6.98 48.09,8.86 50.15,9.8 C52.21,10.74 54.28,11.68 54.28,12.33 C54.28,12.99 49.31,13.93 46.87,14.49 C44.43,15.05 40.02,16.46 40.02,16.46 L34.01,11.11 L38.7,7.54 Z" fill="#FFD4AC"/>
  <path d="M50.43,11.62 C50.43,12.99 49.27,14.11 47.85,14.11 C46.42,14.11 45.18,12.95 45.18,11.58 C45.18,10.21 46.29,9.05 47.71,9.05 C49.13,9.05 50.43,10.25 50.43,11.62 Z" fill="#1A191E"/>
  <path d="M41.28,6.95 L36.12,7.16 L29.03,15.04 L28.84,18.14 C28.84,18.14 31.51,17.11 34.24,16.69 C36.96,16.27 37.89,16.26 38.51,16.31 C39.54,16.4 40.2,16.5 40.2,16.5 C40.2,16.5 42,13.82 42.08,12 C42.22,8.85 41.28,6.95 41.28,6.95 Z" fill="#F2478D"/>
  <path d="M28,7.87 C26.41,8.89 24.76,11.91 23.73,13.78 C22.7,15.65 21.12,20.03 23.17,21.01 C24.55,21.67 27.39,18.9 29.27,18.1 C31.1,17.32 32.39,17.07 32.39,17.07 C32.39,17.07 32.58,16.32 32.88,16.13 C33.18,15.94 38.51,14.96 38.51,14.96 L38.51,13.65 C38.51,13.65 32.27,14.82 32.17,14.4 C32.08,13.98 33.65,11.35 34.87,10.08 C36.09,8.81 38.95,7.08 38.95,7.08 C38.95,7.08 36.35,6.85 33.48,6.66 C30.87,6.48 29.69,6.79 28,7.87 Z" fill="#5F6369"/>
  <path d="M36.31,14.44 L38.23,13.36 C38.23,13.36 39.5,12.23 40.34,13.08 C41.21,13.95 40.01,15.61 38.79,15.05 C37.89,14.63 36.31,14.44 36.31,14.44 Z" fill="#1A191E"/>
  <path d="M54.49,58.86 C55.76,62.66 57.94,71.88 73.14,71.88 C84.12,71.88 87.41,71.71 90.67,72.44 C92.85,72.93 95.25,74.48 97.29,75.04 C97.92,75.21 97.08,72.51 96.66,71.03 C96.42,70.18 95.67,68.57 95.67,68.57 C95.67,68.57 97.57,69.06 99.19,69.77 C100.52,70.35 102.22,71.11 103.27,71.74 C103.96,72.15 103.08,68.88 102.21,66.74 C101.6,65.25 99.54,62.66 99.54,62.66 C99.54,62.66 101.51,63.43 102.36,63.79 C102.87,64 103.93,64.52 104.78,64.75 C105.5,64.95 101.17,57.1 99.34,54.92 C97.51,52.74 93.64,49.15 91.81,48.02 C89.98,46.89 75.83,47.18 75.83,47.18 L54.85,48.24 C54.84,48.23 52.87,54 54.49,58.86 Z" fill="url(#SVGID_1_)"/>
  <path d="M66.11,37.88 C74.66,36.82 82.37,41.26 87.09,44 C91.81,46.75 97.58,52.94 97.58,52.94 C97.58,52.94 94.32,53.44 91.83,53.39 C89.53,53.34 86.39,52.87 86.39,52.87 C86.39,52.87 89.21,55.17 90.75,57.66 C91.34,58.6 92.86,61.53 92.86,61.53 C92.86,61.53 87.37,61.6 82.09,59.35 C78.87,57.98 74,54.92 74,54.92 C74,54.92 75.69,59.35 76.11,60.41 C76.53,61.47 77.24,63.79 77.24,63.79 C77.24,63.79 71.89,63.58 67.53,59.92 C63.17,56.26 63.31,55.37 63.31,55.37 C63.31,55.37 64.58,59.99 64.93,61.19 C65.28,62.39 65.77,65.55 65.77,65.55 C65.77,65.55 59.97,64.99 56.9,61.75 C54.88,59.62 53.52,56.4 53.45,53.8 C53.36,51.18 54.14,39.36 66.11,37.88 Z" fill="url(#SVGID_2_)"/>
</svg>
